X: 1213
T: Albury Ram
B: australian traditional tunes wiki
M:6/8
L:1/8
R: Jig
Q: 3/8=100
K:G
V:1 
|:F|"G"GGGG2F|D3-D2F|GGGG2B|"G7"d3-d2d|"C"e2ee2f/e/|"G"d2BG3|"A7"A2BA2G|"D7"F2AD2F|
"G"GGGG2F|D3-D2F|GGGG2B|"G7"d3-d2d|"C"e2ee2f/e/|"G"d2BG3|"D7"A3B3|1"G"G3"D7"F2:|2"G"G3-G2z||
% abcbook-tune_id 6342d53ad0d745b0a7a2aceb


% abcbook-boost 0
% abcbook-tablature 
% abcbook-transpose 
% abcbook-lastupdated 1665324354499
% abcbook-soundfonts 
% abcbook-repeats 1
% NFF Book 2016

